Automatic/src/svg/Epoch - Cassette Vision-content.svg

<svg xmlns="http://www.w3.org/2000/svg" xml:space="preserve" width="256" height="320"><defs><clipPath id="a" clipPathUnits="userSpaceOnUse"><path d="M0 256h256V0H0Z"/></clipPath></defs><g clip-path="url(#a)" transform="matrix(1.33333 0 0 -1.33333 -42.667 330.667)"><path d="M0 0h136v-76H-.001Zm0 28h136v-4H0Zm164 40H-28v-240h192V64zM0-80h136c2.2 0 4 1.8 4 4V4H-4v-80c0-2.2 1.8-4 4-4M-4 20h144v12H-4Zm164-188H-24V64h184z" style="fill:#fff;fill-opacity:1;fill-rule:nonzero;stroke:none" transform="translate(60 180)"/></g></svg>

<?xml version="1.0" encoding="UTF-8" standalone="no"?>
<svg
   xmlns:dc="http://purl.org/dc/elements/1.1/"
   xmlns:cc="http://creativecommons.org/ns#"
   xmlns:rdf="http://www.w3.org/1999/02/22-rdf-syntax-ns#"
   xmlns:svg="http://www.w3.org/2000/svg"
   xmlns="http://www.w3.org/2000/svg"
   viewBox="0 0 256 320"
   height="320"
   width="256"
   xml:space="preserve"
   id="svg2"
   version="1.1"><metadata
     id="metadata8"><rdf:RDF><cc:Work
         rdf:about=""><dc:format>image/svg+xml</dc:format><dc:type
           rdf:resource="http://purl.org/dc/dcmitype/StillImage" /></cc:Work></rdf:RDF></metadata><defs
     id="defs6"><clipPath
       id="clipPath18"
       clipPathUnits="userSpaceOnUse"><path
         id="path16"
         d="M 0,256 H 256 V 0 H 0 Z" /></clipPath></defs><g
     transform="matrix(1.3333333,0,0,-1.3333333,-42.666666,330.66666)"
     id="g10"><g
       id="g12"><g
         clip-path="url(#clipPath18)"
         id="g14"><g
           transform="translate(60,180)"
           id="g20"><path
             id="path22"
             style="fill:#ffffff;fill-opacity:1;fill-rule:nonzero;stroke:none"
             d="M 0,0 H 136 V -76 H 0 -0.001 Z M 0,28 H 136 V 24 H 0 Z m 164,40 h -4 -184 -4 v -4 -232 -4 h 4 184 4 v 4 232 z M 0,-80 h 136 c 2.2,0 4,1.8 4,4 V 4 H -4 v -80 c 0,-2.2 1.8,-4 4,-4 M -4,20 H 140 V 32 H -4 Z M 160,-168 H -24 V 64 h 184 z" /></g></g></g></g></svg>
